X:1
T:O Worship the King
T:Text: Robert Grant, 1833, alt.; based on Psalm 104 Tune: W. Gardner's Sacred Melodies, 1815; attr. Haydn
T:10 10 11 11 LYONS www.hymnary.org/text/o_worship_the_king_all_glorious_above
T:O Worship the King
T:This hymn is in the public domain. You may freely use this score for personal and congregational worship. If you reproduce the score, please credit Hymnary.org as the source. 
T:This hymn is in the public domain. You may freely use this score for personal and congregational worship. If you reproduce the score, please credit Hymnary.org as the source. 
T:This hymn is in the public domain. You may freely use this score for personal and congregational worship. If you reproduce the score, please credit Hymnary.org as the source. 
Z:This hymn is in the public domain. You may freely use this score for personal and congregational worship. If you reproduce the score, please credit Hymnary.org as the source.
%%score ( 1 2 ) ( 3 4 )
L:1/8
M:3/4
K:G
V:1 treble nm="SOPRANO ALTO" snm="S. A."
V:2 treble 
V:3 bass nm="TENOR BASS" snm="T. B."
V:4 bass 
V:1
"^G""^1""^2""^3""^4""^5" D2 | G2 G2"^D" A2 |"^G" B4 G2 |"^C" c2"^D7" c2"^G" B2 |"^D" A4 | D2 | %6
w: O|wor- ship the|King all-|glo- rious a-|bove,|O|
w: O|tell of his|might and|sing of his|grace,|whose|
w: Your|boun- ti- ful|care, what|tongue can re-|cite?|It|
w: Frail|chil- dren of|dust, and|fee- ble as|frail,|in|
w: O|mea- sure- less|Might, un-|change- a- ble|Love,|whom|
"^G" G2 G2"^D" A2 |"^G" B4"^C" c2 |"^C" d>c B2"^D7" A2 |"^G" G4 |"^D" D2 | D2 D2 E2 | %12
w: grate- ful- ly|sing his|power * and his|love:|our|shield and de-|
w: robe is the|light, whose|can- * o- py|space.|His|char- iots of|
w: breathes in the|air, it|shines * in the|light;|it|streams from the|
w: you do we|trust, nor|find * you to|fail.|Your|mer- cies, how|
w: an- gels de-|light to|wor- * ship a-|bove!|Your|ran- somed cre-|
"^D7" F2 F2"^G" G2 |"^D" A2 A2"^G" B2 |"^D7" c4 |1 D2 |"^G" G2 G2"^D" A2 |"^G" B2 B2"^C" c2 | %18
w: fend- er, the|An- cient of|Days,|pa-|vil- ioned in|splen- dor and|
w: wrath the deep|thun- der- clouds|form,|and|dark is his|path on the|
w: hills, it de-|scends to the|plain,|and|sweet- ly dis-|tills in the|
w: ten- der, how|firm to the|end,|our|Mak- er, De-|fend- er, Re-|
w: a- tion, with|glo- ry a-|blaze,|in|true ad- o-|ra- tion shall|
"^G" d>c B2"^D7" A2 |"^G" G4 x2 |] %20
w: gird- * ed with|praise.|
w: wings * of the|storm.|
w: dew * and the|rain.|
w: deem- * er, and|Friend!|
w: sing * to your|praise!|
V:2
 B,2 | D2 D2 D2 | D4 D2 | C2 D2 D2 | D4 | D2 | B,2 D2 D2 | D4 E2 | D>E D2 C2 | B,4 | D2 | %11
 D2 D2 ^C2 | =C2 C2 B,2 | A,2 D2 G2 | F4 |1 DC | B,2 D2 D2 | D2 D2 E2 | D>E D2 C2 | B,4 x2 |] %20
V:3
 G,2 | B,2 G,2 F,2 | G,4 G,2 | G,2 A,2 G,2 | F,4 | F,2 | G,2 G,2 F,2 | G,4 G,2 | G,2 G,2 F,2 | %9
 G,4 | F,2 | F,2 F,2 G,2 | A,2 A,2 G,2 | F,2 F,2 G,2 | A,4 |1 F,2 | G,2 G,2 F,2 | G,2 G,2 G,2 | %18
 G,2 G,2 F,2 | G,4 x2 |] %20
V:4
 G,,2 | G,,2 B,,2 D,2 | G,4 B,,2 | E,2 F,2 G,2 | D,4 | D,2 | G,,2 B,,2 D,2 | G,4 E,2 | %8
 B,,>C, D,2 D,2 | G,,4 | D,2 | D,2 D,2 D,2 | D,2 D,2 D,2 | D,2 D,2 D,2 | D,4 |1 D,2 | %16
 G,,2 B,,2 D,2 | G,2 G,2 E,2 | B,,>C, D,2 D,2 | G,,4 x2 |] %20

